src/images/clients/dyson.svg

<svg width="132" height="50" viewBox="0 0 132 50" fill="none" xmlns="http://www.w3.org/2000/svg">
<path d="M18.9617 24.8974C18.9617 28.2053 16.3154 30.8516 13.0075 30.8516C9.69959 30.8516 7.05328 28.2053 7.05328 24.8974C7.05328 21.5895 9.69959 18.9432 13.0075 18.9432H18.9617V24.8974ZM25.5775 0.419067H18.9617V12.4598C16.7123 12.4598 14.463 12.4598 13.0075 12.4598C6.12708 12.4598 0.569824 18.017 0.569824 24.8974C0.569824 31.7778 6.12708 37.3351 13.0075 37.3351C19.8879 37.3351 25.4451 31.7778 25.4451 24.8974C25.4451 21.4572 25.4451 12.4598 25.4451 12.4598L25.5775 0.419067Z" fill="#231F20"/>
<path d="M91.3383 30.8516C94.6462 30.8516 97.2925 28.2053 97.2925 24.8974C97.2925 21.5895 94.6462 18.9432 91.3383 18.9432C88.0304 18.9432 85.3841 21.5895 85.3841 24.8974C85.5164 28.2053 88.1627 30.8516 91.3383 30.8516ZM79.0329 24.8974C79.0329 18.017 84.5902 12.4598 91.4706 12.4598C98.351 12.4598 103.908 18.017 103.908 24.8974C103.908 31.7778 98.351 37.3351 91.4706 37.3351C84.5902 37.3351 79.0329 31.7778 79.0329 24.8974Z" fill="#231F20"/>
<path d="M124.682 24.8974C124.682 21.7219 122.035 19.0755 118.86 19.0755C115.684 19.0755 113.038 21.7219 113.038 24.8974C113.038 26.4852 113.038 36.8058 113.038 36.8058C109.73 36.8058 106.555 36.8058 106.555 36.8058C106.555 36.8058 106.555 28.3376 106.555 24.8974C106.555 18.017 112.112 12.4598 118.992 12.4598C125.873 12.4598 131.43 18.017 131.43 24.8974C131.43 28.3376 131.43 36.8058 131.43 36.8058C131.43 36.8058 128.254 36.8058 124.946 36.8058C124.682 36.8058 124.682 26.4852 124.682 24.8974Z" fill="#231F20"/>
<path d="M63.8166 20.6633C62.8904 20.0018 63.1551 18.9432 64.7428 18.5463C66.7276 18.017 70.1678 18.414 73.0787 19.7371L76.122 15.503C74.7988 14.4445 71.8879 12.989 67.6538 12.7244C67.6538 12.7244 60.5087 11.7982 57.5978 17.2231C57.5978 17.2231 55.0838 22.2511 60.1118 25.4267C63.155 27.2791 68.4477 28.073 70.1678 28.8669C71.4909 29.6608 71.094 31.1163 69.1092 31.5132C65.669 32.3071 61.1703 30.3224 59.7148 29.2638L56.5393 33.6302C58.6563 35.218 61.3026 36.6735 65.5367 37.3351C65.5367 37.3351 72.2848 38.5259 75.9896 33.8949C76.6512 33.101 79.6945 27.4114 73.608 24.1035C70.4324 22.3834 65.4044 21.5895 63.8166 20.6633Z" fill="#231F20"/>
<path d="M33.3841 41.5692C33.6487 41.7015 36.692 43.8185 39.6029 43.8185C46.7479 43.9509 47.1449 36.5412 47.1449 34.8211C45.8217 36.2766 43.0431 37.2028 41.323 37.2028C34.4426 37.2028 29.0177 31.9101 29.0177 25.0297C29.0177 21.5895 29.0177 12.989 29.0177 12.989C29.0177 12.989 32.1932 12.989 35.5011 12.989C35.5011 12.989 35.5011 23.5743 35.5011 25.0297C35.5011 28.2053 38.1474 30.8516 41.323 30.8516C44.4986 30.8516 47.1449 28.2053 47.1449 25.0297C47.1449 23.7066 47.1449 12.989 47.1449 12.989C50.4528 12.989 53.6283 12.989 53.6283 12.989V25.0297C53.6283 35.7473 54.1576 46.7295 43.7047 49.2435C35.8981 51.0959 30.3408 46.2002 29.9439 45.9356L33.3841 41.5692Z" fill="#231F20"/>
</svg>

<svg xmlns="http://www.w3.org/2000/svg" width="132" height="50" fill="none" viewBox="0 0 132 50"><path fill="#231F20" d="M18.962 24.897a5.93 5.93 0 0 1-5.954 5.955 5.93 5.93 0 0 1-5.955-5.955 5.93 5.93 0 0 1 5.955-5.954h5.954v5.954ZM25.578.42h-6.616v12.04h-5.954A12.423 12.423 0 0 0 .57 24.898c0 6.88 5.557 12.438 12.438 12.438 6.88 0 12.437-5.557 12.437-12.438V12.46L25.578.42ZM91.338 30.852a5.93 5.93 0 0 0 5.955-5.955 5.93 5.93 0 0 0-5.955-5.954 5.93 5.93 0 0 0-5.954 5.954c.132 3.308 2.779 5.955 5.954 5.955Zm-12.305-5.955c0-6.88 5.557-12.437 12.438-12.437 6.88 0 12.437 5.557 12.437 12.437 0 6.88-5.557 12.438-12.437 12.438a12.423 12.423 0 0 1-12.438-12.438ZM124.682 24.897c0-3.175-2.647-5.821-5.822-5.821-3.176 0-5.822 2.646-5.822 5.821v11.909h-6.483V24.897c0-6.88 5.557-12.437 12.437-12.437a12.423 12.423 0 0 1 12.438 12.437v11.909h-6.484c-.264 0-.264-10.32-.264-11.909ZM63.817 20.663c-.927-.661-.662-1.72.926-2.117 1.985-.529 5.425-.132 8.336 1.191l3.043-4.234c-1.323-1.059-4.234-2.514-8.468-2.779 0 0-7.145-.926-10.056 4.5 0 0-2.514 5.027 2.514 8.203 3.043 1.852 8.336 2.646 10.056 3.44 1.323.794.926 2.25-1.059 2.646-3.44.794-7.939-1.19-9.394-2.25l-3.176 4.367c2.117 1.588 4.764 3.043 8.998 3.705 0 0 6.748 1.19 10.453-3.44.661-.794 3.705-6.484-2.382-9.792-3.176-1.72-8.204-2.514-9.791-3.44ZM33.384 41.57c.265.132 3.308 2.248 6.219 2.248 7.145.133 7.542-7.277 7.542-8.997-1.323 1.456-4.102 2.382-5.822 2.382-6.88 0-12.305-5.293-12.305-12.173V12.989H35.5v12.04c0 3.176 2.646 5.823 5.822 5.823s5.822-2.647 5.822-5.822V12.989h6.483v12.04c0 10.718.53 21.7-9.923 24.214-7.807 1.853-13.364-3.043-13.761-3.307l3.44-4.367Z"/></svg>
